svg/device/escalator_up_fill.svg

<?xml version="1.0" encoding="UTF-8"?>
<svg width="24px" height="24px" viewBox="0 0 24 24" version="1.1" xmlns="http://www.w3.org/2000/svg" xmlns:xlink="http://www.w3.org/1999/xlink">
    <title>escalator_up_fill</title>
    <g id="Icon" stroke="none" stroke-width="1" fill="none" fill-rule="evenodd">
        <g id="Device" transform="translate(-48.000000, -432.000000)">
            <g id="escalator_up_fill" transform="translate(48.000000, 432.000000)">
                <path d="M24,0 L24,24 L0,24 L0,0 L24,0 Z M12.5935,23.2578 L12.5819,23.2595 L12.5109,23.295 L12.4919,23.2987 L12.4767,23.295 L12.4057,23.2595 C12.3958,23.2564 12.387,23.259 12.3821,23.2649 L12.378,23.2758 L12.3609,23.7031 L12.3659,23.7235 L12.3769,23.7357 L12.4805,23.8097 L12.4953,23.8136 L12.5071,23.8097 L12.6107,23.7357 L12.6233,23.7197 L12.6267,23.7031 L12.6096,23.2758 C12.6076,23.2657 12.601,23.2593 12.5935,23.2578 Z M12.8584,23.1453 L12.8445,23.1473 L12.6598,23.2397 L12.6499,23.2499 L12.6472,23.2611 L12.6651,23.6906 L12.6699,23.7034 L12.6784,23.7105 L12.8793,23.8032 C12.8914,23.8069 12.9022,23.803 12.9078,23.7952 L12.9118,23.7812 L12.8777,23.1665 C12.8753,23.1546 12.8674,23.147 12.8584,23.1453 Z M12.143,23.1473 C12.1332,23.1424 12.1222,23.1453 12.1156,23.1526 L12.1099,23.1665 L12.0758,23.7812 C12.0751,23.7927 12.0828,23.8019 12.0926,23.8046 L12.1083,23.8032 L12.3092,23.7105 L12.3186,23.7024 L12.3225,23.6906 L12.3404,23.2611 L12.3372,23.2485 L12.3278,23.2397 L12.143,23.1473 Z" id="MingCute" fill-rule="nonzero"></path>
                <path d="M19,3.99998 C20.6569,3.99998 22,5.34313 22,6.99998 C22,8.59765679 20.7511226,9.90364059 19.1762773,9.99488729 L19,9.99998 L17.4806,9.99998 L10.3814,18.8741 C9.85270857,19.5348714 9.07174153,19.9392974 8.23319439,19.9937013 L8.03875,20 L5,20 C3.34315,20 2,18.6568 2,17 C2,15.402275 3.24892392,14.096336 4.82372764,14.0050925 L5,14 L6.51937,14 L13.6186,5.12589 C14.1473286,4.46508143 14.9282638,4.06067862 15.7667661,4.00627827 L15.9612,3.99998 L19,3.99998 Z M5.29312,3.4644 C5.6536,3.10392 6.22083503,3.07619077 6.6131235,3.38121231 L6.70733,3.4644 L8.82865,5.58572 C9.21918,5.97625 9.21918,6.60941 8.82866,6.99994 C8.46817077,7.36042 7.90094355,7.38814923 7.50864848,7.08312769 L7.41444,6.99994 L7.00023,6.58572 L7.00022,9.82831 C7.00022,10.3806 6.55251,10.8283 6.00022,10.8283 C5.48738857,10.8283 5.06472209,10.442273 5.00695765,9.94492394 L5.00023,9.8283 L5.00023,6.58572 L4.58601,6.99994 C4.19549,7.39046 3.56232,7.39046 3.1718,6.99994 C2.81131077,6.63945077 2.78358083,6.07222355 3.08861018,5.67992848 L3.1718,5.58572 L5.29312,3.4644 Z" id="形状" fill="#09244B"></path>
            </g>
        </g>
    </g>
</svg>

<svg xmlns="http://www.w3.org/2000/svg" width="24" height="24"><g fill="none" fill-rule="evenodd"><path d="M24 0v24H0V0h24ZM12.594 23.258l-.012.002-.071.035-.02.004-.014-.004-.071-.036c-.01-.003-.019 0-.024.006l-.004.01-.017.428.005.02.01.013.104.074.015.004.012-.004.104-.074.012-.016.004-.017-.017-.427c-.002-.01-.009-.017-.016-.018Zm.264-.113-.014.002-.184.093-.01.01-.003.011.018.43.005.012.008.008.201.092c.012.004.023 0 .029-.008l.004-.014-.034-.614c-.003-.012-.01-.02-.02-.022Zm-.715.002a.023.023 0 0 0-.027.006l-.006.014-.034.614c0 .012.007.02.017.024l.015-.002.201-.093.01-.008.003-.011.018-.43-.003-.012-.01-.01-.184-.092Z"/><path fill="#09244B" d="M19 4a3 3 0 0 1 .176 5.995L19 10h-1.52l-7.099 8.874a3 3 0 0 1-2.148 1.12L8.04 20H5a3 3 0 0 1-.176-5.995L5 14h1.52l7.099-8.874a3 3 0 0 1 2.148-1.12L15.96 4H19ZM5.293 3.464a1 1 0 0 1 1.32-.083l.094.083L8.83 5.586a1 1 0 0 1-1.32 1.497L7.414 7 7 6.586v3.242a1 1 0 0 1-1.993.117L5 9.828V6.586L4.586 7a1 1 0 0 1-1.497-1.32l.083-.094 2.121-2.122Z"/></g></svg>
